X:405
T: Tuichuan haozi
N: C1440
O: China,Shanxi, Hequ
S: I, 322]
R: Haozi, Xingchuan haozi]
M: 2/4
L: 1/16
K: Bb
g2gfg2dc | b8 | g2gfg2dc | b8 |
f3bg2e2 | d2cbf4 | d2f2gfdc | B8 |
d8 | d2dcb4 | d2ddc2b2 | c2d2agfg | b4b4 |
agfgc4 | c2dcb2cb | g2f2d2cd | f4f4 |
d2dcb4 | d2dcb4 | d2b4ag | f8 |
d2b2a2g2 | a2agf4 | f2c2d2dc | B8 |
d2b2a2g2 | a2agf4 | f2c2d2dc | B8 |
g2gfg2dc | b8 | g2gfg2dc | b8 |
f3bg2e2 | d2cbf4 | d2f2gfdc | B8

@@@ Tune index: 6406
